X:1
T:Let's Have a Peal for John Cooke's Soul
M:3/4
L:1/4
K:F
 F| F3/2- E/2 D| C2 F| E2 F| C2 F| B, B, F| C2 C| F2 F| A3/2 G/2A/2 B/2|\
 c3/2 c/2 A| c c/2c/2 F| G c2| B3/2 c/2 A| G3/2 G/2 c| c2 c| c3/2 c/2 G|\
 G2 F| G3/2 G/2A/2 B/2| c2 A| d3/2 d/2 c| c3/2 B/2 G| A2 c| c3/2 c/2 F|\
 E2 A| G3/2 C/2F/2 F/2| E2 C| D3/2 E/2 F| E3/2 D/2- E| F2||
